X:1
T:Goodbye, Fare-Ye-Well
M:3/4
L:1/4
K:D
 z2 A| D- F A| A- ^G A| B- A G| F2 A| A G F| G2 B| B A G| F2 A| A2 A|\
 A- ^G A| B- c B| A2 d| c2 A| B2 ^G| A- c B| A2 z|
